X:1
T:Title
%%score 1 ( 2 3 )
L:1/8
Q:1/4=104
M:4/4
K:Eb
V:1 treble nm="Grand Piano, Soprano"
V:2 bass nm="Choir Pad, Meet Me There (Wilson)"
V:3 bass 
V:1
 [EG]>[FA] [GB]2- [GB][Ac] [GB]2 | [EG]2 [DF]2 E4 | [EB]>[F=B] [Ec]2- [Ec][Ee] [Fd]2 | %3
w: By~B.~F.~Roe * * * * *|||
 [Ec]2 [DB]6 | [FB]>[FB] [Ee]2- [Ee][Fd] [Ge]2 | B2 [Ac]2 [Ae]4 | %6
w: |||
 [_Ge]>[Gc] [=GB][Ge]- [Ge]2 [EG]2 | [DF]2 E6 | [EG]>[FA] [GB]6- | %9
w: |||
 [GB][Ge]/[Af]/- [Af][Ae]/[Ac]/- [Ac]4- | [Ac]>[Ad]- [Ad][Ac]/[GB]/- [GB]2- [GB]/[Ge][EB]/- | %11
w: ||
 [EB]>[EG]- [EG]>[DF]- [DF]4- | [DF]>[EG]- [EG][FA]/[GB]/- [GB]>[Ac]- [Ac]>[GB]- | %13
w: ||
 [GB]>[Ge]- [Ge][Bd]/[Ac]/- [Ac]>[Ad]- [Ad]>[Ae]- | %14
w: |
 [Ae]>[_Ge]- [Ge][Gc]/[=GB]/- [GB]<[Ge]- [Ge]>[EG]- | %15
w: |
 [EG]>[DF]- [DF]>E- E[K:bass]B,/C/- C=B,/_B,/- | B,6 z2 |] %17
w: ||
V:2
 [E,B,]>[E,B,] [E,E]2- [E,E][E,E] [E,E]2 | [E,B,]2 [B,,A,]2 [E,G,]4 | %2
 [E,G,]>[E,G,] [C,G,]2- [C,G,][C,C] [F,B,]2 | [F,=A,]2 [B,,B,]6 | %4
 [A,D]>[A,D] [G,E]2- [G,E][F,B,] [E,B,]2 | [G,E]2 [A,E]2 [A,C]4 | %6
 [=A,C]>[A,E] [B,E]B,- B,3/2 z/ [B,,B,]2 | [B,,A,]2 [E,G,]6 | %8
 z2 z z/ [E,E]/- [E,E][E,E]/[E,E]/- [E,E] z | z4 z [A,E]/[A,E]/- [A,E][A,E]/[A,E]/- | %10
 [A,E]>[A,E]- [A,E][A,E]/[E,E]/- [E,E]2- [E,E]/[E,B,][G,B,]/- | %11
 [G,B,]>[E,B,]- [E,B,]>[B,,B,]- [B,,B,]>B,- B,.B, | %12
 z/ A,[G,E]/- [G,E][F,D]/[E,E]/- [E,E]>[E,E]- [E,E]>[E,E]- | %13
 [E,E]>[E,B,]- [E,B,][G,E]/[A,E]/- [A,E]>[A,D]- [A,D]>[A,C]- | %14
 [A,C]>[=A,C]- [A,C][A,E]/[B,E]/- [B,E]<B,- B, z/ [B,,B,]/- | %15
 [B,,B,]>[B,,A,]- [B,,A,]>E,- E,-[E,-G,]/>[E,A,]/- [E,-A,]/>[E,A,-]/A,/G,/- | G,6 z2 |] %17
V:3
 x8 | x8 | x8 | x8 | x8 | x8 | x8 | x8 | x8 | x8 | x8 | z4 z2 z z/ B,/- | B,2 z2 z4 | x8 | x8 | %15
 z2 z z/ G,/- G, z z2 | x8 |] %17

